X:156
T:RVW2/2/156
C:Mr. and Mrs. Verrall, Horsham, Sussex, 8 October 1904
L:1/4
Q:1/4=140
M:4/4
I:linebreak $
K:G
"^(Editorial suggestion " D | G3/2 A/ G E | E D C B, | D G G A | G3 G |$ G A B c | d B A G | 
G B d d | d3 B |$ c2 c e | B d2 B | A G A B | A3 G |$ B3/2 A/ B G | E D B, D | G B A B | G2 z |] 



